Origami/48x48/apps/vbam.svg

<svg width="48" height="48" version="1" xmlns="http://www.w3.org/2000/svg">
 <path d="m17.99082 12c-2.141948 0-4.053815 0.672266-5.368945 2h-4.021875c-3.6564 0-6.6 3.065667-6.6 6.666667v8.666666c0 3.601 2.9436 6.666667 6.6 6.666667h4.021875c1.31513 1.327701 3.226997 2 5.368945 2h12.01836c2.141948 0 4.053815-0.672266 5.368945-2h4.021875c3.6564 0 6.6-3.065667 6.6-6.666667v-8.666666c0-3.601-2.9436-6.666667-6.6-6.666667h-4.021875c-1.31513-1.327701-3.226997-2-5.368945-2z" style="opacity:.2"/>
 <path d="m17.99082 11c-2.141948 0-4.053815 0.672266-5.368945 2h-4.021875c-3.6564 0-6.6 3.065667-6.6 6.666667v8.666666c0 3.601 2.9436 6.666667 6.6 6.666667h4.021875c1.31513 1.327701 3.226997 2 5.368945 2h12.01836c2.141948 0 4.053815-0.672266 5.368945-2h4.021875c3.6564 0 6.6-3.065667 6.6-6.666667v-8.666666c0-3.601-2.9436-6.666667-6.6-6.666667h-4.021875c-1.31513-1.327701-3.226997-2-5.368945-2z" style="fill:#7f4fc8"/>
 <circle cx="42" cy="23" r="2" style="opacity:.2"/>
 <circle cx="42" cy="22" r="2" style="fill:#ffffff"/>
 <circle transform="rotate(90)" cx="25" cy="-36" r="2" style="opacity:.2"/>
 <circle transform="rotate(90)" cx="24" cy="-36" r="2" style="fill:#ffffff"/>
 <path d="m8 20c-0.554 0-1 0.446-1 1v2h-2c-0.554 0-1 0.446-1 1v2c0 0.554 0.446 1 1 1h2v2c0 0.554 0.446 1 1 1h2c0.554 0 1-0.446 1-1v-2h2c0.554 0 1-0.446 1-1v-2c0-0.554-0.446-1-1-1h-2v-2c0-0.554-0.446-1-1-1h-2z" style="opacity:.2"/>
 <path d="m8 19c-0.554 0-1 0.446-1 1v2h-2c-0.554 0-1 0.446-1 1v2c0 0.554 0.446 1 1 1h2v2c0 0.554 0.446 1 1 1h2c0.554 0 1-0.446 1-1v-2h2c0.554 0 1-0.446 1-1v-2c0-0.554-0.446-1-1-1h-2v-2c0-0.554-0.446-1-1-1h-2z" style="fill:#ffffff"/>
 <path d="m17.990234 11c-2.141948 0-4.05401 0.672266-5.36914 2h-4.0214846c-3.6564 0-6.5996094 3.065016-6.5996094 6.666016v1c0-3.601 2.9432094-6.666016 6.5996094-6.666016h4.0214846c1.31513-1.327734 3.227192-2 5.36914-2h12.019532c2.141948 0 4.05401 0.672299 5.36914 2h4.021485c3.6564 0 6.599609 3.065016 6.599609 6.666016v-1c0-3.601-2.943209-6.666016-6.599609-6.666016h-4.021485c-1.31513-1.327701-3.227192-2-5.36914-2h-12.019532z" style="fill:#ffffff;opacity:.1"/>
 <rect x="16" y="16" width="16" height="16" style="fill:#7b92ed"/>
 <circle transform="rotate(90)" cx="17" cy="-41" r="1" style="opacity:.2"/>
 <circle transform="rotate(90)" cx="16" cy="-41" r="1" style="fill:#52ff41"/>
</svg>

<svg xmlns="http://www.w3.org/2000/svg" width="48" height="48" version="1">
 <path style="opacity:0.2" d="m 17.99082,12 c -2.141948,0 -4.053815,0.672266 -5.368945,2 L 8.6,14 C 4.9436,14 2,17.065667 2,20.666667 l 0,8.666666 C 2,32.934333 4.9436,36 8.6,36 l 4.021875,0 c 1.31513,1.327701 3.226997,2 5.368945,2 l 12.01836,0 c 2.141948,0 4.053815,-0.672266 5.368945,-2 L 39.4,36 c 3.6564,0 6.6,-3.065667 6.6,-6.666667 l 0,-8.666666 C 46,17.065667 43.0564,14 39.4,14 l -4.021875,0 c -1.31513,-1.327701 -3.226997,-2 -5.368945,-2 z"/>
 <path style="fill:#7f4fc8" d="m 17.99082,11 c -2.141948,0 -4.053815,0.672266 -5.368945,2 L 8.6,13 C 4.9436,13 2,16.065667 2,19.666667 l 0,8.666666 C 2,31.934333 4.9436,35 8.6,35 l 4.021875,0 c 1.31513,1.327701 3.226997,2 5.368945,2 l 12.01836,0 c 2.141948,0 4.053815,-0.672266 5.368945,-2 L 39.4,35 c 3.6564,0 6.6,-3.065667 6.6,-6.666667 l 0,-8.666666 C 46,16.065667 43.0564,13 39.4,13 l -4.021875,0 c -1.31513,-1.327701 -3.226997,-2 -5.368945,-2 z"/>
 <circle style="opacity:0.2" cx="42" cy="23" r="2"/>
 <circle style="fill:#ffffff" cx="42" cy="22" r="2"/>
 <circle style="opacity:0.2" cx="25" cy="-36" r="2" transform="matrix(0,1,-1,0,0,0)"/>
 <circle style="fill:#ffffff" cx="24" cy="-36" r="2" transform="matrix(0,1,-1,0,0,0)"/>
 <path style="opacity:0.2" d="m 8,20 c -0.554,0 -1,0.446 -1,1 l 0,2 -2,0 c -0.554,0 -1,0.446 -1,1 l 0,2 c 0,0.554 0.446,1 1,1 l 2,0 0,2 c 0,0.554 0.446,1 1,1 l 2,0 c 0.554,0 1,-0.446 1,-1 l 0,-2 2,0 c 0.554,0 1,-0.446 1,-1 l 0,-2 c 0,-0.554 -0.446,-1 -1,-1 l -2,0 0,-2 c 0,-0.554 -0.446,-1 -1,-1 l -2,0 z"/>
 <path style="fill:#ffffff" d="m 8,19 c -0.554,0 -1,0.446 -1,1 l 0,2 -2,0 c -0.554,0 -1,0.446 -1,1 l 0,2 c 0,0.554 0.446,1 1,1 l 2,0 0,2 c 0,0.554 0.446,1 1,1 l 2,0 c 0.554,0 1,-0.446 1,-1 l 0,-2 2,0 c 0.554,0 1,-0.446 1,-1 l 0,-2 c 0,-0.554 -0.446,-1 -1,-1 l -2,0 0,-2 c 0,-0.554 -0.446,-1 -1,-1 l -2,0 z"/>
 <path style="fill:#ffffff;opacity:0.1" d="M 17.990234 11 C 15.848286 11 13.936224 11.672266 12.621094 13 L 8.5996094 13 C 4.9432094 13 2 16.065016 2 19.666016 L 2 20.666016 C 2 17.065016 4.9432094 14 8.5996094 14 L 12.621094 14 C 13.936224 12.672266 15.848286 12 17.990234 12 L 30.009766 12 C 32.151714 12 34.063776 12.672299 35.378906 14 L 39.400391 14 C 43.056791 14 46 17.065016 46 20.666016 L 46 19.666016 C 46 16.065016 43.056791 13 39.400391 13 L 35.378906 13 C 34.063776 11.672299 32.151714 11 30.009766 11 L 17.990234 11 z"/>
 <rect style="fill:#7b92ed" width="16" height="16" x="16" y="16"/>
 <circle style="opacity:0.2" cx="17" cy="-41" r="1" transform="matrix(0,1,-1,0,0,0)"/>
 <circle style="fill:#52ff41" cx="16" cy="-41" r="1" transform="matrix(0,1,-1,0,0,0)"/>
</svg>
